!!!OTL: O JESULEIN ZART
!!!ARE: Europa, Mitteleuropa, Deutschland
!!!SCT: E1939
!!!YEM: Copyright 1995, estate of Helmut Schaffrath.
**kern
*ICvox
*Ivox
*M3/4
*k[b-]
*F:
{4f
=1
4.f
8f
4f
=2
2g
4e
=3
4.f
8e
4d
=4
2c}
{4cc
=5
2a
4g
=6
2f
4g
=7
4c
4d
4e
=8
2f}
{4a
=9
2b-
4b-
=10
2g
4g
=11
2a
4a
=12
2f}
{4f
=13
2g
4g
=14
2e
4e
=15
2f
4f
=16
2d}
{4g
=17
4c
4d
4e
=18
2f
4a
=19
4g
4f
4e
=20
2f}
==
!!!AGN: geistlich, Fest - Lied, Weihnachten
!!!ONB: ESAC (Essen Associative Code) Database: ERK3
!!!AMT: simple triple
!!!AIN: vox
!!!EED: Helmut Schaffrath
!!!EEV: 1.0
*-
